icons/dev-data-4-filled.svg

<svg fill="none" viewBox="0 0 24 24"><path stroke="currentColor" stroke-linecap="round" stroke-width="2" d="M12 17.4v-6m7.7 6.4a2 2 0 1 0 0 3.8 2 2 0 0 0 0-3.8Zm0 0v-5.6a1 1 0 0 0-1-1h-13.4a1 1 0 0 0-1 1v5.6m0 0a2 2 0 1 0 0 3.8 2 2 0 0 0 0-3.8Zm7.7 3.8a2 2 0 1 1 0-3.8 2 2 0 0 1 0 3.8Zm-6-14.4h12a1.2 1.2 0 0 0 1.2-1.2v-2.4a1.2 1.2 0 0 0-1.2-1.2h-12a1.2 1.2 0 0 0-1.2 1.2v2.4a1.2 1.2 0 0 0 1.2 1.2Z"/></svg>

<svg fill="none" viewBox="0 0 24 24"><path stroke="currentColor" stroke-linecap="round" stroke-width="2" d="M12 17.4v-6m7.7 6.4a2 2 0 1 0 0 3.8 2 2 0 0 0 0-3.8Zm0 0v-5.6a1 1 0 0 0-1-1H5.3a1 1 0 0 0-1 1v5.6m0 0a2 2 0 1 0 0 3.8 2 2 0 0 0 0-3.8Zm7.7 3.8a2 2 0 1 1 0-3.8 2 2 0 0 1 0 3.8ZM6 7.2h12A1.2 1.2 0 0 0 19.2 6V3.6A1.2 1.2 0 0 0 18 2.4H6a1.2 1.2 0 0 0-1.2 1.2V6A1.2 1.2 0 0 0 6 7.2Z"/></svg>
